Obsidian-SemiLight/actions/22s/edit-group.svg

<svg viewBox="0 0 22 22" xmlns="http://www.w3.org/2000/svg"><path d="m4 2v13h2v2h2v2h10v-13h-2v-2h-2v-2zm1 1h8v1h-7v10h-1zm2 2h6 1 1v1h-7v10h-1v-1-1zm2 2h6 1 1v11h-8v-1-1z" fill="#4d4d4d"/></svg>

<svg xmlns="http://www.w3.org/2000/svg" viewBox="0 0 22 22">
  <defs id="defs3051">
    <style type="text/css" id="current-color-scheme">
      .ColorScheme-Text {
        color:#4d4d4d;
      }
      </style>
  </defs>
 <path 
    style="fill:currentColor;fill-opacity:1;stroke:none" 
	d="M 4 2 L 4 15 L 6 15 L 6 17 L 8 17 L 8 19 L 18 19 L 18 6 L 16 6 L 16 4 L 14 4 L 14 2 L 4 2 z M 5 3 L 13 3 L 13 4 L 6 4 L 6 14 L 5 14 L 5 3 z M 7 5 L 13 5 L 14 5 L 15 5 L 15 6 L 8 6 L 8 16 L 7 16 L 7 15 L 7 14 L 7 5 z M 9 7 L 15 7 L 16 7 L 17 7 L 17 18 L 9 18 L 9 17 L 9 16 L 9 7 z "
    class="ColorScheme-Text"
    />  
</svg>
